!!!SOCIAL_FUNCTION:	songs of the hand-game
!!!PDT:	1936
!!!OTL: No_44_Looking_for_My_Horses.krn
!!!REG: Oklahoma and Montana
!!!LANG: Tone
!!!LING_GROUP: Algonquin
**kern	**kern
*staff2	*staff1
=1-	=1-
=	=
*clefF4	*clefF4
*k[b-]	*k[b-]
*M2/4	*M2/4
4GG/	8.c\L
.	16c\Jk
4GG/	8.c\L
.	16B-\Jk
=2	=2
4GG/	8c\L
.	8c\J
4GG/	4A\
=3	=3
*M3/4	*M3/4
2.r	4A\
.	4A\
.	8A\
.	8r
=4	=4
*M2/4	*M2/4
2r	8.c\L
.	16c\Jk
.	8.c\L
.	16B-\Jk
=5	=5
2r	8c\L
.	8c\J
.	4A\
=6	=6
*M3/4	*M3/4
2.r	4A\
.	4A\
.	8A\
.	8r
=7	=7
*M2/4	*M2/4
2r	4A\
.	8.c\L
.	16A\Jk
=8	=8
2r	4A\
.	4F\
=9	=9
2r	4F\
.	8C/
.	8r
=10	=10
2r	4A\
.	8.c\L
.	16A\Jk
=11	=11
2r	4A\
.	4F\
=12	=12
2r	4F\
.	8C/
.	8r
=13	=13
*M3/4	*M3/4
2.r	8.C/L
.	16c/Jk
.	8c^\L
.	16A\Jk
.	16r
.	8c^\
.	8r
=14	=14
2.r	8.C^/L
.	16c/Jk
.	8c^\L
.	16A\Jk
.	16r
.	8c\
.	8r
==:|!	==:|!
*-	*-
